X:88
T:The Devil Among the Taylors
% Nottingham Music Database
S:Trad, arr Phil Rowe
M:6/8
K:A
CB,| A,CA, CA,C| ECE AEA| FAF DFD| EAE CEC|\
DFD B,DB,| CEC A,CA,| B,DB, G,B,G,| A,2A, A,:|
CD| EFE EFE| DED DED| CDC CDC| B,CB, B,CD|\
EFE EFE| CDC CDC| EFE EFE| B,3 B,2E|
A,CA, CA,C| ECE AEA| FAF DFD| EAE CEC|\
DFD B,DB,| CEC A,CA,| B,DB, G,B,G,| A,3 A,:|
